X: 297
U:~=!turn!
M:C
L:1/8
K:A dorian
f | gdde g2 ga | agab agea | gdde g2 gb | agab g/g/g ga |
gdde g2 ga | agab agea | gdde gaba | gegB A/A/A A2 |]


